COLOR/status 16/16/dialog-error.svg

<svg height="16" width="16" xmlns="http://www.w3.org/2000/svg"><g enable-background="new" transform="matrix(.35714286 0 0 .35714286 -.58143 -.382857)"><rect fill="#f22c42" height="42" rx="21" transform="matrix(0 -1 -1 0 0 0)" width="42" x="-44.472" y="-45.028004"/><path d="m8.0280011 21.472001v4h31.9999989v-4z" fill="#fff"/><g transform="matrix(2.8 0 0 2.8 1.628004 1.072001)"><path d="m8 .5c-4.155 0-7.5 3.345-7.5 7.5 0 .0843489.00898292.1663399.01171875.25.1320303-4.0374083 3.41763005-7.25 7.48828125-7.25 4.070651 0 7.356251 3.2125917 7.488281 7.25.002736-.0836601.011719-.1656511.011719-.25 0-4.155-3.345-7.5-7.5-7.5z" fill="#fff" opacity=".3"/><path d="m.51171875 7.75c-.00273583.0836601-.01171875.1656511-.01171875.25 0 4.155 3.345 7.5 7.5 7.5s7.5-3.345 7.5-7.5c0-.0843489-.008983-.1663399-.011719-.25-.13203 4.037408-3.41763 7.25-7.488281 7.25-4.0706512 0-7.35625095-3.212592-7.48828125-7.25z" opacity=".2"/></g></g></svg>

<?xml version="1.0" encoding="UTF-8" standalone="no"?>
<svg
   xmlns:dc="http://purl.org/dc/elements/1.1/"
   xmlns:cc="http://creativecommons.org/ns#"
   xmlns:rdf="http://www.w3.org/1999/02/22-rdf-syntax-ns#"
   xmlns:svg="http://www.w3.org/2000/svg"
   xmlns="http://www.w3.org/2000/svg"
   xmlns:xlink="http://www.w3.org/1999/xlink"
   xmlns:sodipodi="http://sodipodi.sourceforge.net/DTD/sodipodi-0.dtd"
   xmlns:inkscape="http://www.inkscape.org/namespaces/inkscape"
   height="16"
   width="16"
   version="1.1"
   id="svg4"
   sodipodi:docname="dialog-error.svg"
   inkscape:version="0.92.4 (5da689c313, 2019-01-14)">
  <metadata
     id="metadata10">
    <rdf:RDF>
      <cc:Work
         rdf:about="">
        <dc:format>image/svg+xml</dc:format>
        <dc:type
           rdf:resource="http://purl.org/dc/dcmitype/StillImage" />
      </cc:Work>
    </rdf:RDF>
  </metadata>
  <defs
     id="defs8">
    <linearGradient
       id="linearGradient1115">
      <stop
         offset="0"
         id="stop1103"
         style="stop-color:#d5d3cf" />
      <stop
         style="stop-color:#e3e2df"
         offset=".038"
         id="stop1105" />
      <stop
         style="stop-color:#c0bfbc"
         offset=".077"
         id="stop1107" />
      <stop
         style="stop-color:#c0bfbc"
         offset=".923"
         id="stop1109" />
      <stop
         style="stop-color:#e3e2df"
         offset=".962"
         id="stop1111" />
      <stop
         offset="1"
         id="stop1113"
         style="stop-color:#d5d3cf" />
    </linearGradient>
    <linearGradient
       id="linearGradient6058">
      <stop
         style="stop-color:#ffffff"
         offset="0"
         id="stop6054" />
      <stop
         style="stop-color:#f6f5f4"
         offset="1"
         id="stop6056" />
    </linearGradient>
    <linearGradient
       gradientUnits="userSpaceOnUse"
       gradientTransform="matrix(0,6,-12,0,-64,209.99687)"
       x2="1"
       id="paint3_linear-2-6-5">
      <stop
         stop-color="#C01C27"
         id="stop91-0-7-4" />
      <stop
         stop-color="#E01B24"
         offset="1"
         id="stop93-2-5-7" />
    </linearGradient>
    <linearGradient
       xlink:href="#linearGradient1115"
       gradientUnits="userSpaceOnUse"
       gradientTransform="matrix(1.0015061,0,0,0.99993452,72.09037,56.015192)"
       y2="234"
       y1="234"
       x2="-60"
       x1="43.844002"
       id="linearGradient1097" />
    <radialGradient
       xlink:href="#linearGradient6058"
       gradientUnits="userSpaceOnUse"
       gradientTransform="matrix(1.757743,-9.5621778e-8,3.7652438e-8,1.9495846,106.60563,-336.54495)"
       fy="225.59599"
       fx="-24.239"
       r="24"
       cy="225.59599"
       cx="-24.239"
       id="radialGradient1099" />
    <linearGradient
       xlink:href="#paint3_linear-2-6-5"
       gradientUnits="userSpaceOnUse"
       gradientTransform="matrix(0,6,-12,0,-264,209.99687)"
       x2="1"
       id="linearGradient1383" />
    <linearGradient
       xlink:href="#linearGradient4360"
       gradientUnits="userSpaceOnUse"
       y2="488"
       y1="88"
       x2="488"
       x1="88"
       id="linearGradient4358" />
    <linearGradient
       id="linearGradient4360">
      <stop
         offset="0"
         id="stop4362"
         style="stop-color:#000000;stop-opacity:0.58823532" />
      <stop
         offset="1"
         id="stop4366"
         style="stop-color:#000000;stop-opacity:0.20555556" />
    </linearGradient>
    <filter
       style="color-interpolation-filters:sRGB"
       y="-0.039999999"
       x="-0.050000001"
       height="1.0880001"
       width="1.1059999"
       id="filter4380">
      <feGaussianBlur
         stdDeviation="8.48"
         id="feGaussianBlur4382" />
    </filter>
    <filter
       style="color-interpolation-filters:sRGB"
       y="-0.0099999998"
       x="-0.0099999998"
       height="1.022"
       width="1.026"
       id="filter4346">
      <feGaussianBlur
         stdDeviation="2.12"
         id="feGaussianBlur4348" />
    </filter>
    <clipPath
       id="clipPath994"
       clipPathUnits="userSpaceOnUse">
      <path
         sodipodi:nodetypes="scccssscsss"
         inkscape:connector-curvature="0"
         id="path996"
         d="m 335.73108,62 c -8.82418,0 -9.77365,0.90635 -9.7304,9.74838 V 84 96.25162 c -0.0433,8.84203 0.90622,9.74838 9.7304,9.74838 h 16.53919 c 8.82418,0 9.7304,-0.90625 9.7304,-9.74838 V 84 71.74838 C 362.00067,62.90625 361.09445,62 352.27027,62 Z"
         style="color:#000000;display:inline;overflow:visible;visibility:visible;fill:#cdcdcd;fill-opacity:1;fill-rule:nonzero;stroke:none;stroke-width:2;stroke-miterlimit:4;stroke-dasharray:none;stroke-opacity:1;marker:none;enable-background:accumulate" />
    </clipPath>
    <clipPath
       id="clipPath994-3"
       clipPathUnits="userSpaceOnUse">
      <path
         sodipodi:nodetypes="scccssscsss"
         inkscape:connector-curvature="0"
         id="path996-6"
         d="m 335.73108,62 c -8.82418,0 -9.77365,0.90635 -9.7304,9.74838 V 84 96.25162 c -0.0433,8.84203 0.90622,9.74838 9.7304,9.74838 h 16.53919 c 8.82418,0 9.7304,-0.90625 9.7304,-9.74838 V 84 71.74838 C 362.00067,62.90625 361.09445,62 352.27027,62 Z"
         style="color:#000000;display:inline;overflow:visible;visibility:visible;fill:#cdcdcd;fill-opacity:1;fill-rule:nonzero;stroke:none;stroke-width:2;stroke-miterlimit:4;stroke-dasharray:none;stroke-opacity:1;marker:none;enable-background:accumulate" />
    </clipPath>
    <linearGradient
       id="linearGradient3650-7-9">
      <stop
         id="stop4366-9"
         offset="0"
         style="stop-color:#5884f4;stop-opacity:1" />
      <stop
         style="stop-color:#80a3fa;stop-opacity:1"
         offset="1"
         id="stop4368" />
    </linearGradient>
    <clipPath
       id="clipPath994-7"
       clipPathUnits="userSpaceOnUse">
      <path
         sodipodi:nodetypes="scccssscsss"
         inkscape:connector-curvature="0"
         id="path996-5"
         d="m 335.73108,62 c -8.82418,0 -9.77365,0.90635 -9.7304,9.74838 V 84 96.25162 c -0.0433,8.84203 0.90622,9.74838 9.7304,9.74838 h 16.53919 c 8.82418,0 9.7304,-0.90625 9.7304,-9.74838 V 84 71.74838 C 362.00067,62.90625 361.09445,62 352.27027,62 Z"
         style="color:#000000;display:inline;overflow:visible;visibility:visible;fill:#cdcdcd;fill-opacity:1;fill-rule:nonzero;stroke:none;stroke-width:2;stroke-miterlimit:4;stroke-dasharray:none;stroke-opacity:1;marker:none;enable-background:accumulate" />
    </clipPath>
    <clipPath
       id="clipPath994-35"
       clipPathUnits="userSpaceOnUse">
      <path
         sodipodi:nodetypes="scccssscsss"
         inkscape:connector-curvature="0"
         id="path996-62"
         d="m 335.73108,62 c -8.82418,0 -9.77365,0.90635 -9.7304,9.74838 V 84 96.25162 c -0.0433,8.84203 0.90622,9.74838 9.7304,9.74838 h 16.53919 c 8.82418,0 9.7304,-0.90625 9.7304,-9.74838 V 84 71.74838 C 362.00067,62.90625 361.09445,62 352.27027,62 Z"
         style="color:#000000;display:inline;overflow:visible;visibility:visible;fill:#cdcdcd;fill-opacity:1;fill-rule:nonzero;stroke:none;stroke-width:2;stroke-miterlimit:4;stroke-dasharray:none;stroke-opacity:1;marker:none;enable-background:accumulate" />
    </clipPath>
    <clipPath
       id="clipPath994-9"
       clipPathUnits="userSpaceOnUse">
      <path
         sodipodi:nodetypes="scccssscsss"
         inkscape:connector-curvature="0"
         id="path996-1"
         d="m 335.73108,62 c -8.82418,0 -9.77365,0.90635 -9.7304,9.74838 V 84 96.25162 c -0.0433,8.84203 0.90622,9.74838 9.7304,9.74838 h 16.53919 c 8.82418,0 9.7304,-0.90625 9.7304,-9.74838 V 84 71.74838 C 362.00067,62.90625 361.09445,62 352.27027,62 Z"
         style="color:#000000;display:inline;overflow:visible;visibility:visible;fill:#cdcdcd;fill-opacity:1;fill-rule:nonzero;stroke:none;stroke-width:2;stroke-miterlimit:4;stroke-dasharray:none;stroke-opacity:1;marker:none;enable-background:accumulate" />
    </clipPath>
    <clipPath
       id="clipPath994-2"
       clipPathUnits="userSpaceOnUse">
      <path
         sodipodi:nodetypes="scccssscsss"
         inkscape:connector-curvature="0"
         id="path996-7"
         d="m 335.73108,62 c -8.82418,0 -9.77365,0.90635 -9.7304,9.74838 V 84 96.25162 c -0.0433,8.84203 0.90622,9.74838 9.7304,9.74838 h 16.53919 c 8.82418,0 9.7304,-0.90625 9.7304,-9.74838 V 84 71.74838 C 362.00067,62.90625 361.09445,62 352.27027,62 Z"
         style="color:#000000;display:inline;overflow:visible;visibility:visible;fill:#cdcdcd;fill-opacity:1;fill-rule:nonzero;stroke:none;stroke-width:2;stroke-miterlimit:4;stroke-dasharray:none;stroke-opacity:1;marker:none;enable-background:accumulate" />
    </clipPath>
    <clipPath
       id="clipPath983-2"
       clipPathUnits="userSpaceOnUse">
      <path
         inkscape:connector-curvature="0"
         style="opacity:1;fill:#4d4d4d;fill-opacity:1;stroke:none;stroke-width:2;stroke-linecap:round;stroke-linejoin:round;stroke-miterlimit:4;stroke-dasharray:none;stroke-dashoffset:0;stroke-opacity:1"
         d="M 115.03125,44 C 42.3826,44 32,54.356615 32,126.9375 v 58.125 C 32,257.64309 42.3826,268 115.03125,268 H 152 V 44 Z"
         id="path985-5" />
    </clipPath>
    <clipPath
       id="clipPath994-0"
       clipPathUnits="userSpaceOnUse">
      <path
         sodipodi:nodetypes="scccssscsss"
         inkscape:connector-curvature="0"
         id="path996-9"
         d="m 335.73108,62 c -8.82418,0 -9.77365,0.90635 -9.7304,9.74838 V 84 96.25162 c -0.0433,8.84203 0.90622,9.74838 9.7304,9.74838 h 16.53919 c 8.82418,0 9.7304,-0.90625 9.7304,-9.74838 V 84 71.74838 C 362.00067,62.90625 361.09445,62 352.27027,62 Z"
         style="color:#000000;display:inline;overflow:visible;visibility:visible;fill:#cdcdcd;fill-opacity:1;fill-rule:nonzero;stroke:none;stroke-width:2;stroke-miterlimit:4;stroke-dasharray:none;stroke-opacity:1;marker:none;enable-background:accumulate" />
    </clipPath>
    <clipPath
       id="clipPath994-36"
       clipPathUnits="userSpaceOnUse">
      <path
         sodipodi:nodetypes="scccssscsss"
         inkscape:connector-curvature="0"
         id="path996-0"
         d="m 335.73108,62 c -8.82418,0 -9.77365,0.90635 -9.7304,9.74838 V 84 96.25162 c -0.0433,8.84203 0.90622,9.74838 9.7304,9.74838 h 16.53919 c 8.82418,0 9.7304,-0.90625 9.7304,-9.74838 V 84 71.74838 C 362.00067,62.90625 361.09445,62 352.27027,62 Z"
         style="color:#000000;display:inline;overflow:visible;visibility:visible;fill:#cdcdcd;fill-opacity:1;fill-rule:nonzero;stroke:none;stroke-width:2;stroke-miterlimit:4;stroke-dasharray:none;stroke-opacity:1;marker:none;enable-background:accumulate" />
    </clipPath>
    <clipPath
       id="clipPath994-6"
       clipPathUnits="userSpaceOnUse">
      <path
         sodipodi:nodetypes="scccssscsss"
         inkscape:connector-curvature="0"
         id="path996-2"
         d="m 335.73108,62 c -8.82418,0 -9.77365,0.90635 -9.7304,9.74838 V 84 96.25162 c -0.0433,8.84203 0.90622,9.74838 9.7304,9.74838 h 16.53919 c 8.82418,0 9.7304,-0.90625 9.7304,-9.74838 V 84 71.74838 C 362.00067,62.90625 361.09445,62 352.27027,62 Z"
         style="color:#000000;display:inline;overflow:visible;visibility:visible;fill:#cdcdcd;fill-opacity:1;fill-rule:nonzero;stroke:none;stroke-width:2;stroke-miterlimit:4;stroke-dasharray:none;stroke-opacity:1;marker:none;enable-background:accumulate" />
    </clipPath>
    <linearGradient
       id="linearGradient3797-5">
      <stop
         style="stop-color:#f7f7f7;stop-opacity:1"
         offset="0"
         id="stop3801" />
      <stop
         style="stop-color:#e6e6e6;stop-opacity:1"
         offset="1"
         id="stop3799" />
    </linearGradient>
    <clipPath
       id="clipPath994-02"
       clipPathUnits="userSpaceOnUse">
      <path
         sodipodi:nodetypes="scccssscsss"
         inkscape:connector-curvature="0"
         id="path996-3"
         d="m 335.73108,62 c -8.82418,0 -9.77365,0.90635 -9.7304,9.74838 V 84 96.25162 c -0.0433,8.84203 0.90622,9.74838 9.7304,9.74838 h 16.53919 c 8.82418,0 9.7304,-0.90625 9.7304,-9.74838 V 84 71.74838 C 362.00067,62.90625 361.09445,62 352.27027,62 Z"
         style="color:#000000;display:inline;overflow:visible;visibility:visible;fill:#cdcdcd;fill-opacity:1;fill-rule:nonzero;stroke:none;stroke-width:2;stroke-miterlimit:4;stroke-dasharray:none;stroke-opacity:1;marker:none;enable-background:accumulate" />
    </clipPath>
    <clipPath
       id="clipPath994-75"
       clipPathUnits="userSpaceOnUse">
      <path
         sodipodi:nodetypes="scccssscsss"
         inkscape:connector-curvature="0"
         id="path996-92"
         d="m 335.73108,62 c -8.82418,0 -9.77365,0.90635 -9.7304,9.74838 V 84 96.25162 c -0.0433,8.84203 0.90622,9.74838 9.7304,9.74838 h 16.53919 c 8.82418,0 9.7304,-0.90625 9.7304,-9.74838 V 84 71.74838 C 362.00067,62.90625 361.09445,62 352.27027,62 Z"
         style="color:#000000;display:inline;overflow:visible;visibility:visible;fill:#cdcdcd;fill-opacity:1;fill-rule:nonzero;stroke:none;stroke-width:2;stroke-miterlimit:4;stroke-dasharray:none;stroke-opacity:1;marker:none;enable-background:accumulate" />
    </clipPath>
    <clipPath
       id="clipPath994-28"
       clipPathUnits="userSpaceOnUse">
      <path
         sodipodi:nodetypes="scccssscsss"
         inkscape:connector-curvature="0"
         id="path996-97"
         d="m 335.73108,62 c -8.82418,0 -9.77365,0.90635 -9.7304,9.74838 V 84 96.25162 c -0.0433,8.84203 0.90622,9.74838 9.7304,9.74838 h 16.53919 c 8.82418,0 9.7304,-0.90625 9.7304,-9.74838 V 84 71.74838 C 362.00067,62.90625 361.09445,62 352.27027,62 Z"
         style="color:#000000;display:inline;overflow:visible;visibility:visible;fill:#cdcdcd;fill-opacity:1;fill-rule:nonzero;stroke:none;stroke-width:2;stroke-miterlimit:4;stroke-dasharray:none;stroke-opacity:1;marker:none;enable-background:accumulate" />
    </clipPath>
    <clipPath
       id="clipPath994-361"
       clipPathUnits="userSpaceOnUse">
      <path
         sodipodi:nodetypes="scccssscsss"
         inkscape:connector-curvature="0"
         id="path996-29"
         d="m 335.73108,62 c -8.82418,0 -9.77365,0.90635 -9.7304,9.74838 V 84 96.25162 c -0.0433,8.84203 0.90622,9.74838 9.7304,9.74838 h 16.53919 c 8.82418,0 9.7304,-0.90625 9.7304,-9.74838 V 84 71.74838 C 362.00067,62.90625 361.09445,62 352.27027,62 Z"
         style="color:#000000;display:inline;overflow:visible;visibility:visible;fill:#cdcdcd;fill-opacity:1;fill-rule:nonzero;stroke:none;stroke-width:2;stroke-miterlimit:4;stroke-dasharray:none;stroke-opacity:1;marker:none;enable-background:accumulate" />
    </clipPath>
    <clipPath
       id="clipPath994-6-3"
       clipPathUnits="userSpaceOnUse">
      <path
         sodipodi:nodetypes="scccssscsss"
         inkscape:connector-curvature="0"
         id="path996-1-1"
         d="m 335.73108,62 c -8.82418,0 -9.77365,0.90635 -9.7304,9.74838 V 84 96.25162 c -0.0433,8.84203 0.90622,9.74838 9.7304,9.74838 h 16.53919 c 8.82418,0 9.7304,-0.90625 9.7304,-9.74838 V 84 71.74838 C 362.00067,62.90625 361.09445,62 352.27027,62 Z"
         style="color:#000000;display:inline;overflow:visible;visibility:visible;fill:#cdcdcd;fill-opacity:1;fill-rule:nonzero;stroke:none;stroke-width:2;stroke-miterlimit:4;stroke-dasharray:none;stroke-opacity:1;marker:none;enable-background:accumulate" />
    </clipPath>
  </defs>
  <sodipodi:namedview
     pagecolor="#ffffff"
     bordercolor="#666666"
     borderopacity="1"
     objecttolerance="10"
     gridtolerance="10"
     guidetolerance="10"
     inkscape:pageopacity="0"
     inkscape:pageshadow="2"
     inkscape:window-width="1920"
     inkscape:window-height="1016"
     id="namedview6"
     showgrid="false"
     inkscape:zoom="14.75"
     inkscape:cx="-6.9491525"
     inkscape:cy="8"
     inkscape:window-x="0"
     inkscape:window-y="27"
     inkscape:window-maximized="1"
     inkscape:current-layer="g958" />
  <g
     style="enable-background:new"
     id="g958"
     transform="matrix(0.35714286,0,0,0.35714286,-0.5814299,-0.38285731)">
    <rect
       transform="matrix(0,-1,-1,0,0,0)"
       style="display:inline;fill:#f22c42;fill-opacity:1;stroke:none;stroke-width:1.02439022;stroke-miterlimit:4;stroke-dasharray:none;stroke-opacity:0.25098039;enable-background:new"
       id="rect4408"
       width="42"
       height="42"
       x="-44.472"
       y="-45.028004"
       rx="21"
       ry="21" />
    <path
       sodipodi:nodetypes="ccccc"
       inkscape:connector-curvature="0"
       id="path966-5"
       d="m 8.0280011,21.472001 v 4 H 40.028 v -4 z"
       style="color:#000000;font-style:normal;font-variant:normal;font-weight:normal;font-stretch:normal;font-size:medium;line-height:normal;font-family:sans-serif;font-variant-ligatures:normal;font-variant-position:normal;font-variant-caps:normal;font-variant-numeric:normal;font-variant-alternates:normal;font-feature-settings:normal;text-indent:0;text-align:start;text-decoration:none;text-decoration-line:none;text-decoration-style:solid;text-decoration-color:#000000;letter-spacing:normal;word-spacing:normal;text-transform:none;writing-mode:lr-tb;direction:ltr;text-orientation:mixed;dominant-baseline:auto;baseline-shift:baseline;text-anchor:start;white-space:normal;shape-padding:0;clip-rule:nonzero;display:inline;overflow:visible;visibility:visible;opacity:1;isolation:auto;mix-blend-mode:normal;color-interpolation:sRGB;color-interpolation-filters:linearRGB;solid-color:#000000;solid-opacity:1;vector-effect:none;fill:#ffffff;fill-opacity:1;fill-rule:nonzero;stroke:none;stroke-width:1.99621439;stroke-linecap:butt;stroke-linejoin:miter;stroke-miterlimit:4;stroke-dasharray:none;stroke-dashoffset:0;stroke-opacity:1;color-rendering:auto;image-rendering:auto;shape-rendering:auto;text-rendering:auto;enable-background:new" />
    <g
       id="g889">
      <path
         id="rect877"
         transform="matrix(2.8,0,0,2.8,1.6280037,1.0720005)"
         d="M 8 0.5 C 3.845 0.5 0.5 3.845 0.5 8 C 0.5 8.0843489 0.50898292 8.1663399 0.51171875 8.25 C 0.64374905 4.2125917 3.9293488 1 8 1 C 12.070651 1 15.356251 4.2125917 15.488281 8.25 C 15.491017 8.1663399 15.5 8.0843489 15.5 8 C 15.5 3.845 12.155 0.5 8 0.5 z "
         style="display:inline;fill:#ffffff;fill-opacity:1;stroke:none;stroke-width:0.36585367;stroke-miterlimit:4;stroke-dasharray:none;stroke-opacity:0.25098039;enable-background:new;opacity:0.3" />
      <path
         id="rect882"
         transform="matrix(2.8,0,0,2.8,1.6280037,1.0720005)"
         d="M 0.51171875 7.75 C 0.50898292 7.8336601 0.5 7.9156511 0.5 8 C 0.5 12.155 3.845 15.5 8 15.5 C 12.155 15.5 15.5 12.155 15.5 8 C 15.5 7.9156511 15.491017 7.8336601 15.488281 7.75 C 15.356251 11.787408 12.070651 15 8 15 C 3.9293488 15 0.64374905 11.787408 0.51171875 7.75 z "
         style="display:inline;fill:#000000;fill-opacity:1;stroke:none;stroke-width:0.36585367;stroke-miterlimit:4;stroke-dasharray:none;stroke-opacity:0.25098039;enable-background:new;opacity:0.2" />
    </g>
  </g>
</svg>
